X:1
T: Colonel Byng's Favourite
C:Nathaniel Gow
R:Strathspey
Q: 128
K:D
M:4/4
L:1/16
|:f2|dcBA d3A FD3 D3F|G3E e3d cA3 A3c|dcBA d3A FD3 D3F|G3E A3F D6c2|
dcBA d3A FD3 D3F|G3E e3d cA3 A3c|dcBA d3A FD3 D3F|G3E A3F D6G2|
F3D A3D FD3 D3F|G3E B3E GE3 E3G|F3D A3D FD3 D3F|G3E A3F D6G2|
F3D A3D FD3 D3F|G3E B3E GE3 E3G|F3D A3F B3G A3F|G3E A3F D6:|
